X:1
T:Title
%%score { ( 1 4 ) | ( 2 3 ) }
L:1/8
Q:1/4=100
M:4/4
K:C
V:1 treble nm="Grand Piano"
V:4 treble 
V:2 bass 
V:3 bass 
V:1
 [CE]3 [DF] [EG][FA][EG][Ec] | [Ec]4 [CE]2 z2 | [B,D]3 [CE] [DF][EG] [FB]>[FA] | [FA]4 [EG]2 z2 | %4
w: Geo.~C.~Hugg * * * * *||||
 [G,CE]3 [G,DF] [EG][FA][EG][Ec] | [^Fc]4 [GB]2 z2 | [^Fd]3 [Fc] [GB][FA]GF | G6 z2 | %8
w: ||||
 E3 [DF] [EG][FA][EG][Ec] | c4 B2 z2 | A3 A ^G[EA] [^Fd]>[Fe] | [Gd]4 [FG]2 z2 | %12
w: ||||
 [EG]3 [EG] [Ec]EFG | A4 c2 z2 | B3 A G[DF] [CE]>[B,D] | C6 z2 | E3 E EEEE | F2 F4 z2 | %18
w: ||||||
 G3 G GGG_B | A6 z2 | [FB]3 [FB] [Ec]cBB | A2 z2 z4 | [^F,C]3 [F,CD] [G,CE]2 [G,CE]2 | %23
w: |||||
 [G,B,E]3 [F,B,D] [E,C]4 |] %24
w: |
V:2
 [C,G,]3 [C,G,] [C,C][C,C][C,C][C,C] | [C,C]4 [C,G,]2 z2 | %2
 [G,,G,]3 [G,,G,] [G,,G,][G,,G,] [G,,G,]>[G,,G,] | C,2- [C,-A,]2 [C,C]2 z2 | %4
 C,3 C, [C,C][C,C][C,C][C,G,] | [D,D]4 [G,D]2 z2 | [D,C]3 [D,C] [D,D][D,C][D,B,D][D,CD] | %7
 [G,B,D]6 z2 | [C,G,C]3 [C,G,] [C,C][C,C][C,C][C,C] | [^G,DF]4 [G,DF]2 z2 | %10
 [A,CE]3 [A,CE] [E,B,E][C,C] [D,C]>[D,C] | [G,B,]6 z2 | [C,C]3 [C,C] [C,G,][C,G,C][D,G,B,][E,C] | %13
 [F,CF]4 [F,A,F]2 z2 | [G,DG]3 [G,CF][K:bass] [G,CE][G,,G,] [G,,G,]>[G,,F,] | [C,E,]6 z2 | %16
 [C,G,C]3 [C,G,C] [C,G,C][C,G,C][C,G,C][C,G,C] | [D,G,B,]2 [D,G,B,]4 z2 | %18
 [E,G,C]3 [E,G,C] [E,G,C][E,G,C][E,G,C][E,G,C] | [F,CF]6 z2 | %20
 [D,G,]3 [D,G,] [C,G,][A,CE][E,^G,E][E,G,E] | .[F,A,F]2 C,4 z2 | A,,3 A,, G,,2 G,,2 | %23
 G,,3 G,, C,4 |] %24
V:3
 x8 | x8 | x8 | G,2 z2 z4 | x8 | x8 | x8 | x8 | x8 | x8 | x8 | x8 | x8 | x8 | x4[K:bass] x4 | x8 | %16
 x8 | x8 | x8 | x8 | x8 | x8 | x8 | x8 |] %24
V:4
 x8 | x8 | x8 | x8 | x8 | x8 | x8 | x8 | x8 | x8 | x8 | x8 | x8 | x8 | x8 | x8 | x8 | x8 | x8 | %19
 x8 | x8 | z C [CEG]4 z2 | x8 | x8 |] %24

